!!!!SEGMENT: pl-kk--kk-i-385--009_anonim--ave-mundi.krn
!!!cenid: 17xx:1989
!!!COM: Anonim
!!!COM-rism: pe30004985
!!!CDT:
!!!CNT:
!!!OTL: Ave mundi
!!!PDT:
!!!AGN: Sacred
!!!SMS-siglum: PL-Kk
!!!SMS-shelfmark: Kk.I.385
!!!NIFC-rismID: 1001143573
!!!URL-scan: http://repozytorium.nifc.pl/skany/pl-kk-nut--i-385
!!!ONB-nifc: UWAGA: numeracja zgodna z numeracją utworów w źródle
!!!ONB-nifc: UWAGA: obsada: S, A, T; S: skan 0005; A: skan 0012; T: skan 0019
!!!SMS-variant:
!!!SMS-altvar:
**kern	**text	**kern	**text	**kern	**text
*part3	*part3	*part2	*part2	*part1	*part1
*staff3	*staff3	*staff2	*staff2	*staff1	*staff1
*I"Tenore.	*	*I"Alto.	*	*I"Soprano.	*
*I'T	*	*I'A	*	*I'S	*
*clefC4	*	*clefC3	*	*clefC1	*
*k[b-]	*	*k[b-]	*	*k[b-]	*
*M3/2	*	*M3/2	*	*M3/2	*
=1	=1	=1	=1	=1	=1
!LO:TX:i:a:t=Tenore. Ave mundi. De B. Vir(go) Ma&colon;	!	!LO:TX:i:a:t=Alto. Ave mundi. De B. Vir(go) Ma&colon;	!	!LO:TX:i:a:t=Soprano. Ave mundi. De B. Vir(go) Ma&colon;	!
!LO:TX:Bi:a:t=9.ty	!	!LO:TX:Bi:a:t=9.muw	!	!LO:TX:Bi:a:t=9.muw	!
!LO:TX:a:t=P:problem:napis "9.ty" przed kluczem	!	!LO:TX:a:t=P:problem:napis "9.muw" przed kluczem	!	!LO:TX:a:t=P:problem:napis "9.muw" przed kluczem	!
2r	.	2r	.	2r	.
*2\right	*	*2\right	*	*2\right	*
!LO:TX:t=P:problem:all\right:global	!	!LO:TX:t=P:problem:all\right:global	!	!LO:TX:t=P:problem:all\right:global	!
2F/	A-	2f\	A-	2a\	A-
2c\	-ve	2e\	-ve	2g\	-ve
=2	=2	=2	=2	=2	=2
2E/	mun-	2g\	mun-	2cc\	mun-
1F	-di	1f	-di	2.a\	-di
.	.	.	.	4r	.
=3	=3	=3	=3	=3	=3
2r	.	2r	.	2r	.
2A\	spes	4f\	spes	4a\	spes
.	.	4a\	.	4cc\	.
2B-\	Ma-	4g\	.	4b-\	.
.	.	4f\	Ma-	4a\	Ma-
=4	=4	=4	=4	=4	=4
1c	-ri-	2f\	-ri-	2a\	-ri-
.	.	4e\	.	4g\	.
.	.	4d\	.	4f\	.
2C/	-a	2e\	-a	2g\	-a
=5	=5	=5	=5	=5	=5
2r	.	2r	.	2r	.
2G/	a-	2e\	a-	2cc\	a-
!	!	!LO:LB:g=original	!	!	!
2G/	-ve	2d\	-ve	2bn\	-ve
!	!	!	!	!LO:LB:g=original	!
=6	=6	=6	=6	=6	=6
2G/	mun-	2g\	mun-	2dd\	mun-
1G	-di	2.e\	-di	1cc	-di
.	.	4r	.	.	.
!LO:LB:g=original	!	!	!	!	!
=7	=7	=7	=7	=7	=7
2r	.	2r	.	2r	.
2G/	spes	4e\	spes	4cc\	spes
.	.	4g\	.	4ee\	.
2A\	ma-	4f\	.	4dd\	.
.	.	4e\	ma-	4cc\	ma-
=8	=8	=8	=8	=8	=8
1G	-ri-	2e\	-ri-	2cc\	-ri-
.	.	4d\	.	4bn\	.
.	.	4c\	.	4a\	.
2G/	-a	2d\	-a	2b\	-a
=9	=9	=9	=9	=9	=9
2r	.	2r	.	2r	.
2G/	a-	2d\	a-	2bn\	a-
2G/	-ve	2d\	-ve	2b\	-ve
=10	=10	=10	=10	=10	=10
4G/	mi-	4e\	mi-	4cc\	mi-
4F/	.	4f\	.	4dd\	.
!	!	!LO:LB:g=original	!	!	!
2G/	.	2e\	.	2cc\	.
2G/	-tis	2g\	tis	2ee\	-tis
=11	=11	=11	=11	=11	=11
4A\	a-	1f	a-	1cc	a-
4G\	.	.	.	.	.
4A\	.	.	.	.	.
4B-\	.	.	.	.	.
4c\	.	4f\	.	2cc\	-ve
4G/	.	4g\	.	.	.
!	!	!	!	!LO:LB:g=original	!
=12	=12	=12	=12	=12	=12
2A/	.	2c\	-ve	2a\	a-
2F/	.	2d\	a-	2bn\	.
2G/	-ve	2e\	.	2cc\	.
!LO:LB:g=original	!	!	!	!	!
=13	=13	=13	=13	=13	=13
2F/	pi-	4f\	.	1cc	-ve
.	.	4e\	-ve	.	.
1G	.	1d	pi-	.	.
.	.	.	.	2bn\	pi-
=14	=14	=14	=14	=14	=14
!	!	!LO:SIC:l:v:s=-a	!	!	!
2G/	-a	2e\	-ia	2cc\	-a
2c\	a-	2e\	a-	2g\	a-
2B-\	-ve	2e\	-ve	2g\	-ve
=15	=15	=15	=15	=15	=15
!	!	!	!	!LO:SIC:l:v:s=cha-	!
4A\	Cha-	4f\	Cha-	4a\	ha-
4G/	-ri-	4g\	-ri-	4b-X\	-ri-
2A\	-ta-	2f\	-ta-	2a\	-ta-
2F/	-te	2a\	-te	2cc\	-te
!	!	!LO:LB:g=original	!	!	!
=16	=16	=16	=16	=16	=16
4B-\	ple-	4d\	ple-	1.f	ple-
4A\	.	4c\	.	.	.
4B-\	.	4d\	.	.	.
4c\	.	4e\	.	.	.
4d\	.	4f\	.	.	.
4A\	.	4c\	.	.	.
=17	=17	=17	=17	=17	=17
2B-\	.	2d\	.	2f/	.
2G/	.	2e\	.	2b-X\	.
2F/	-na	2f\	-na	2a\	.
=18	=18	=18	=18	=18	=18
2B-\	ple-	4g\	ple-	4b-\	.
.	.	4f\	.	4a\	.
!LO:LB:g=original	!	!	!	!	!
2c\	.	2f\	.	1g	.
2C/	.	2e\	.	.	.
!	!	!	!	!LO:LB:g=original	!
=19	=19	=19	=19	=19	=19
2F/	-na	2f\	-na	2a\	-na
2c\	vir-	2f\	Vir-	4a\	vir-
.	.	.	.	4bn\	.
2e\	-go	2g\	-go	2cc#X\	-go
=20	=20	=20	=20	=20	=20
2f\	dul-	2a\	dul-	2dd\	dul-
2e\	-cis	2g\	-cis	2cc#X\	-cis
4d\	et	2f\	et	2dd\	et
4c\	.	.	.	.	.
!	!	!LO:LB:g=original	!	!	!
=21	=21	=21	=21	=21	=21
2B-\	se-	2e\	se-	2dd\	se-
1A	-re-	1e	-re-	2dd\	-re-
.	.	.	.	2cc#X\	.
=22	=22	=22	=22	=22	=22
2A\	-na	2d\	-na	2dd\	-na
2r	.	2c\	vir-	2a\	vir-
2r	.	2d\	-go	2b-X\	-go
=23	=23	=23	=23	=23	=23
2r	.	2c\	dul-	2a\	dul-
2c\	vir-	2A/	-cis	2f\	-cis
2d\	-go	2r	.	2r	.
!LO:LB:g=original	!	!	!	!	!
=24	=24	=24	=24	=24	=24
2.c\	dul-	2r	.	2r	.
.	.	2r	.	2r	.
4B-\	-cis	.	.	.	.
2A\	et	2f\	et	2cc\	et
!	!	!	!	!LO:LB:g=original	!
=25	=25	=25	=25	=25	=25
2d\	se-	2f\	se-	4b-X\	se-
.	.	.	.	4a\	.
1c	-re-	2f\	-re-	1g	-re-
.	.	2e\	.	.	.
=26	=26	=26	=26	=26	=26
2c\	-na	2f\	-na	4a\	-na
.	.	.	.	4g\	.
2c\	vir-	2f\	vir-	4a\	.
.	.	.	.	4b-X\	.
!	!	!LO:LB:g=original	!	!	!
4c\	-go	2f\	-go	4cc\	.
4d\	.	.	.	4dd\	.
=27	=27	=27	=27	=27	=27
1.c	dul-	4e\	dul-	1cc	vir-
.	.	4f\	.	.	.
.	.	4e\	.	.	.
.	.	4d\	.	.	.
.	.	4c\	.	4cc\	-go
.	.	4e\	.	4b-\	.
=28	=28	=28	=28	=28	=28
2c\	.	2f\	.	2a\	dul-
2B-\	-cis	2e\	-cis	2b-\	-cis
2A\	et	2f\	et	2cc\	et
=29	=29	=29	=29	=29	=29
1d	se-	2f\	se-	4b-\	se-
.	.	.	.	4a\	.
.	.	2f\	-re-	1g	-re-
2c\	-re-	2e\	.	.	.
=30	=30	=30	=30	=30	=30
1.c	-na	1.f	-na	1.a	-na.
!LO:LB:g=original	!	!	!	!LO:LB:g=original	!
=31||	=31||	=31||	=31||	=31||	=31||
2r	.	2r	.	2r	.
2F/	San-	2f\	San-	2a\	San-
2c\	-cta	2e\	-cta	2g\	-cta
!	!	!LO:LB:g=original	!	!	!
=32	=32	=32	=32	=32	=32
2E/	pa-	2g\	pa-	2cc\	pa-
1F	-rens	1f	-rens	1a	-rens
=33	=33	=33	=33	=33	=33
2r	.	2r	.	2r	.
2A\	Je-	4f\	Je-	4a\	Je-
.	.	4a\	.	4cc\	.
2B-\	-su	4g\	.	4b-\	.
.	.	4f\	-su	4a\	-su
=34	=34	=34	=34	=34	=34
1c	Chri-	2f\	Chri-	2a\	Chri-
.	.	4e\	.	4g\	.
.	.	4d\	.	4f\	.
2C/	-sti	2e\	-sti	2g\	-sti
=35	=35	=35	=35	=35	=35
2r	.	2r	.	2r	.
2G/	San-	2e\	san-	2cc\	san-
2G/	-cta	2d\	-cta	2bn\	-cta
=36	=36	=36	=36	=36	=36
1G	pa-	2g\	pa-	2dd\	pa-
.	.	1e	-rens	2.cc\	-rens
2G/	-rens	.	.	.	.
.	.	.	.	4r	.
!	!	!	!	!LO:LB:g=original	!
=37	=37	=37	=37	=37	=37
2r	.	2r	.	2r	.
2G/	Je-	4e\	Je-	4cc\	Je-
.	.	4g\	.	4ee\	.
!LO:LB:g=original	!	!LO:LB:g=original	!	!	!
2A\	-su	4f\	.	4dd\	.
.	.	4e\	-su	4cc\	-su
=38	=38	=38	=38	=38	=38
1G	Chri-	2e\	Chri-	2cc\	Chri-
.	.	4d\	.	4bn\	.
.	.	4c\	.	4a\	.
2G/	-sti	2d\	-sti	2b\	-sti
=39	=39	=39	=39	=39	=39
2r	.	2r	.	2r	.
2G/	e-	2d\	e-	2bn\	e-
2G/	-le-	2d\	-lec-	2b\	-lec-
=40	=40	=40	=40	=40	=40
!LO:SIC:l:v:s=-cta	!	!	!	!	!
4G/	-cla	4e\	-ta	4cc\	-ta
4F/	.	4f\	.	4dd\	.
2G/	.	2e\	.	2cc\	.
2G/	so-	2g\	so-	2ee\	so-
=41	=41	=41	=41	=41	=41
4A\	-la	1f	-la	1cc	-la
4G\	.	.	.	.	.
4A\	.	.	.	.	.
4B-\	.	.	.	.	.
4c\	.	4f\	.	2cc\	so-
4G/	.	4g\	.	.	.
=42	=42	=42	=42	=42	=42
2A\	.	2c\	so-	2a\	-la
2F/	.	2d\	.	2bn\	.
!	!	!	!	!LO:LB:g=original	!
2G/	fu-	2e\	-la	2cc\	.
!LO:LB:g=original	!	!LO:LB:g=original	!	!	!
=43	=43	=43	=43	=43	=43
!LO:SIC:v:l:s=-i-	!	!	!	!	!
2F/	-is-	4f\	fu-	1cc	fu-
.	.	4e\	.	.	.
1G	.	1d	-i-	.	.
.	.	.	.	2bn\	-i-
=44	=44	=44	=44	=44	=44
2G/	-sti	2e\	-sti	2cc\	-sti
2c\	es-	2e\	es-	2g\	es-
2B-\	-se	2e\	-se	2g\	-se
=45	=45	=45	=45	=45	=45
4A\	Ma-	4f\	Ma-	4a\	Ma-
4G\	.	4g\	.	4b-X\	.
2A\	.	2f\	.	2a\	.
2F/	-ter	2a\	-ter	2cc\	-ter
=46	=46	=46	=46	=46	=46
4B-\	si-	4d\	si-	1.f	si-
4A\	.	4c\	.	.	.
4B-\	.	4d\	.	.	.
4c\	.	4e\	.	.	.
4d\	.	4f\	.	.	.
4A\	-ne	4c\	.	.	.
=47	=47	=47	=47	=47	=47
2B-\	si-	2d\	.	2f/	.
2G/	.	2e\	.	2b-X\	.
2F/	-ne	2f\	-ne	2a\	-ne
!	!	!LO:LB:g=original	!	!	!
=48	=48	=48	=48	=48	=48
2B-X\	vi-	4g\	vi-	4b-\	vi-
.	.	4f\	.	4a\	.
!LO:LB:g=original	!	!	!	!	!
2c\	.	2f\	.	1g	.
2C/	.	2e\	.	.	.
!	!	!	!	!LO:LB:g=original	!
=49	=49	=49	=49	=49	=49
2F/	-ro	2f\	-ro	2a\	-ro
2c\	et	2f\	et	4a\	et
.	.	.	.	4bn\	.
2e\	lac-	2g\	lac-	2cc#X\	lac-
=50	=50	=50	=50	=50	=50
2f\	-ta-	2a\	-ta-	2dd\	-ta-
2e\	-re	2g\	.	2cc#X\	-re
4d\	mo-	2f\	-re	2dd\	mo-
4c\	.	.	.	.	.
=51	=51	=51	=51	=51	=51
2B-\	-do	2e\	mo-	2dd\	-do
1A	mi-	1e	-do	2dd\	mi-
.	.	.	.	2cc#X\	.
=52	=52	=52	=52	=52	=52
2A\	-ro	2d\	mi-	2dd\	-ro
2r	.	2c\	-ro	2a\	et
2r	.	2d\	lac-	2b-X\	lac-
=53	=53	=53	=53	=53	=53
2r	.	2c\	-ta-	2a\	-ta-
2c\	et	2A/	-re	2f/	-re
2d\	lac-	2r	.	2r	.
!LO:LB:g=original	!	!LO:LB:g=original	!	!LO:LB:g=original	!
=54	=54	=54	=54	=54	=54
2.c\	-ta-	2r	.	2r	.
.	.	2r	.	2r	.
4B-\	-re	.	.	.	.
2A\	mo-	2f\	mo-	2cc\	mo-
=55	=55	=55	=55	=55	=55
2d\	-do	2f\	-do	4b-\	.
.	.	.	.	4a\	do
1c	mi-	2f\	mi-	1g	mi-
.	.	2e\	.	.	.
=56	=56	=56	=56	=56	=56
2c\	-ro	2f\	-ro	4a\	-ro
.	.	.	.	4g\	.
2c\	et	2f\	et	4a\	.
.	.	.	.	4b-\	.
4c\	lac-	2f\	lac-	4cc\	.
4d\	.	.	.	4dd\	.
=57	=57	=57	=57	=57	=57
1.c	-ta-	4e\	-ta-	1cc	.
.	.	4f\	.	.	.
.	.	4e\	.	.	.
.	.	4d\	.	.	.
.	.	4c\	.	4cc\	mo-
.	.	4e\	.	4b-\	-do
=58	=58	=58	=58	=58	=58
2c\	-re	2f\	.	2a\	mo-
2B-\	mo-	2e\	-re	2b-\	.
2A\	-do	2f\	mo-	2cc\	-do
!	!	!LO:LB:g=original	!	!	!
=59	=59	=59	=59	=59	=59
2d\	mi-	2f\	-do	4b-\	mo-
.	.	.	.	4a\	-do
!	!	!	!	!LO:LB:g=original	!
1c	.	2f\	mi-	1g	mi-
.	.	2e\	.	.	.
=60	=60	=60	=60	=60	=60
1.c	-ro.	1.f	-ro.	1.a	-ro.
==	==	==	==	==	==
*-	*-	*-	*-	*-	*-
!!!system-decoration: [(s1,s2,s3)]
!!!RDF**kern: > = above
!!!RDF**kern: < = below
!!!EED: Mateusz Mrugas
!!!EST: 2021-02-13
!!!ENC: Andrzej Kubiczek
!!!END: 2021-02-09
